X:1
T:Pasadena, 87.87 D
T:Pasadena, 87.87 D
T:Daniel Brink Towner, 1899
T:Public Domain Courtesy of the Cyber Hymnal™
C:Daniel Brink Towner, 1899
Z:Public Domain
Z:Courtesy of the Cyber Hymnal™
%%score ( 1 2 ) ( 3 4 )
L:1/8
Q:1/4=106
M:4/4
K:Bb
V:1 treble 
V:2 treble 
V:3 bass 
V:4 bass 
V:1
 [DF]2 [B,D]2 [DB]3 [DF] | [EA]2 [EG]2 [DF]2 [B,D]2 | [DF]2 [FB]2 [=EB][EG][EA][EB] | [Ec]6 z2 | %4
 [DF]2 [B,D]2 [DB]3 [DF] | [EA]2 [EG]2 [DF]2 [B,D]2 x8 | [DF]2 [FB]2 [EB][EA][EG][EA] | [DB]6 z2 | %8
 [Ac]2 [FA]2 [EF]4 | [DB]2 [DB][DF] [EG]2 [DF]2 | [EA]2 [Ec]2 [=Ec]3 [EA] | [=EB]2 [EG]2 F4 | %12
 [DF]2 [B,D]2 [DB]3 [DF] | [EA]2 [EG]2 [DF]2 [B,D]2 | [DF]2 [FB]2 [EB][EA][EG][EA] | [DB]6 z2 |] %16
V:2
 x8 | x8 | x8 | x8 | x8 | x16 | x8 | x8 | x8 | x8 | x8 | x4 (F2 _E2) | x8 | x8 | x8 | x8 |] %16
V:3
 [B,,B,]2 [B,,F,]2 [B,,F,]3 [B,,B,] | [F,C]2 [F,A,]2 [B,,B,]2 [B,,B,]2 | %2
 [B,,B,]2 [D,B,]2 [C,G,][C,C][C,C][C,G,] | [F,A,]6 z2 | [B,,B,]2 [B,,F,]2 [B,,F,]3 [B,,B,] | %5
 [F,C]2 [F,A,]2 [B,,B,]2 [B,,B,]2 [B,,B,]2 [D,B,]2 [F,C][F,C][F,A,]F, | [B,,F,]6 z2 | %7
 F,2 [F,C]2 [F,A,]4 | [B,,F,]2 [B,,F,][B,,B,] [B,,B,]2 [B,,B,]2 | [F,C]2 [F,A,]2 [C,G,]3 [C,C] | %10
 [C,C]2 [C,B,]2 [F,A,]4 | [B,,B,]2 [B,,F,]2 [B,,F,]3 [B,,B,] | [F,C]2 [F,A,]2 [B,,B,]2 [B,,B,]2 | %13
 [B,,B,]2 [D,B,]2 [F,C][F,C][F,A,]F, | [B,,F,]6 z2 | x8 |] %16
V:4
 x8 | x8 | x8 | x8 | x8 | x15 F, | x8 | F,2 x6 | x8 | x8 | x8 | x8 | x8 | x7 F, | x8 | x8 |] %16

